app/images/graphics/trophy-completed-all-exercises.svg

<svg width="335" height="331" viewBox="0 0 335 331" fill="none" xmlns="http://www.w3.org/2000/svg">
<g clip-path="url(#clip0_9545_53994)">
<path d="M161 213.804C159.529 213.804 158.1 213.312 156.94 212.407C155.78 211.502 154.956 210.235 154.598 208.808C154.241 207.381 154.37 205.875 154.966 204.53C155.562 203.185 156.591 202.078 157.888 201.384L277.452 137.464C283.541 133.567 288.176 127.771 290.638 120.974C293.101 114.176 293.253 106.757 291.072 99.864C289.285 94.231 286.011 89.1842 281.597 85.2551C277.182 81.3259 271.79 78.6599 265.988 77.5376C260.186 76.4153 254.188 76.8783 248.627 78.878C243.066 80.8776 238.147 84.3398 234.388 88.9L228.6 95.912C227.467 97.1996 225.878 97.9959 224.168 98.1325C222.458 98.2692 220.763 97.7354 219.44 96.6441C218.117 95.5529 217.27 93.9897 217.079 92.2853C216.888 90.581 217.367 88.8692 218.416 87.512L224.2 80.484C231.112 72.0911 240.77 66.4142 251.466 64.4581C262.161 62.5021 273.204 64.393 282.639 69.7962C292.074 75.1995 299.294 83.7666 303.019 93.9811C306.745 104.196 306.737 115.399 302.996 125.608C299.494 135.179 292.918 143.318 284.296 148.752C284.164 148.836 284.024 148.912 283.896 148.988L164.104 213.024C163.149 213.536 162.083 213.804 161 213.804Z" fill="#FFE500" stroke="#45413C" stroke-width="4" stroke-linecap="round" stroke-linejoin="round"/>
<path d="M160.94 213.804C162.412 213.805 163.841 213.314 165.002 212.409C166.162 211.504 166.987 210.237 167.345 208.81C167.703 207.383 167.574 205.877 166.978 204.531C166.382 203.186 165.354 202.078 164.056 201.384L44.4921 137.464C38.4025 133.567 33.7674 127.771 31.3044 120.974C28.8415 114.177 28.6882 106.757 30.8681 99.864C32.6544 94.2301 35.9271 89.1823 40.3415 85.2523C44.7558 81.3223 50.1484 78.6557 55.9512 77.5333C61.7539 76.4109 67.7519 76.8743 73.3134 78.8748C78.8748 80.8752 83.7938 84.3386 87.5521 88.9L93.3521 95.928C94.4761 97.2452 96.0727 98.0679 97.7976 98.2188C99.5225 98.3696 101.238 97.8366 102.573 96.7346C103.909 95.6325 104.758 94.0498 104.937 92.3275C105.117 90.6053 104.612 88.8816 103.532 87.528L97.7361 80.496C93.4957 75.3511 88.1889 71.1882 82.1822 68.2949C76.1756 65.4016 69.6124 63.8469 62.9461 63.7383C56.2798 63.6296 49.6694 64.9696 43.5717 67.6657C37.474 70.3617 32.0343 74.3495 27.6285 79.3535C23.2227 84.3575 19.9559 90.2584 18.0538 96.6485C16.1517 103.039 15.6596 109.765 16.6116 116.364C17.5635 122.963 19.9368 129.277 23.5675 134.868C27.1982 140.46 31.9996 145.197 37.6401 148.752L38.0401 148.988L157.832 213.024C158.788 213.536 159.856 213.804 160.94 213.804Z" fill="#FFE500" stroke="#45413C" stroke-width="4" stroke-linecap="round" stroke-linejoin="round"/>
<path d="M160.968 201.492C116.264 201.492 80.02 130.384 80.02 85.68V80.632C80.0243 79.296 80.558 78.0161 81.5042 77.0729C82.4504 76.1296 83.732 75.6 85.068 75.6H236.868C238.207 75.6 239.491 76.1318 240.438 77.0785C241.384 78.0252 241.916 79.3092 241.916 80.648V85.68C241.916 130.4 205.676 201.492 160.968 201.492Z" fill="#FFE500"/>
<path d="M80.4438 78.608C80.8377 77.7094 81.4847 76.9449 82.3058 76.4079C83.127 75.8709 84.0867 75.5846 85.0678 75.584H236.868C237.808 75.5832 238.729 75.8449 239.529 76.3396C240.328 76.8343 240.973 77.5424 241.392 78.384C215.496 87.5852 188.167 92.0984 160.688 91.712C133.382 92.0836 106.224 87.648 80.4558 78.608" fill="#FFF48C"/>
<path opacity="0.15" d="M160.692 329.584C190.812 329.584 215.228 325.464 215.228 320.376C215.228 315.292 190.812 311.168 160.692 311.168C130.572 311.168 106.156 315.288 106.156 320.376C106.156 325.46 130.572 329.584 160.692 329.584Z" fill="#45413C"/>
<path d="M160.968 212.528C147.54 214.752 127.02 255.904 127.02 270.272H194.916C194.916 270.272 174.396 210.304 160.968 212.528Z" fill="#EBCB00"/>
<path d="M160.968 240.112C148.692 240.112 143.716 262.512 137.792 270.272H183.588C176.824 260.472 173.244 240.112 160.968 240.112Z" fill="#FFE500"/>
<path d="M210.228 317.956H111.708C110.647 317.956 109.63 317.535 108.88 316.784C108.129 316.034 107.708 315.017 107.708 313.956V298.236H214.228V313.956C214.228 315.017 213.807 316.034 213.056 316.784C212.306 317.535 211.289 317.956 210.228 317.956Z" fill="#915E3A" stroke="#45413C" stroke-width="4" stroke-linecap="round" stroke-linejoin="round"/>
<path d="M214.228 298.236H107.708L114.6 278.548C115.447 276.13 117.024 274.034 119.113 272.552C121.203 271.069 123.702 270.272 126.264 270.272H195.676C198.238 270.272 200.737 271.069 202.827 272.552C204.916 274.034 206.493 276.13 207.34 278.548L214.228 298.236Z" fill="#BF8256" stroke="#45413C" stroke-width="4" stroke-linecap="round" stroke-linejoin="round"/>
<path d="M160.968 201.492C116.264 201.492 80.02 130.384 80.02 85.68V80.632C80.0243 79.296 80.558 78.0161 81.5042 77.0729C82.4504 76.1296 83.732 75.6 85.068 75.6H236.868C238.207 75.6 239.491 76.1318 240.438 77.0785C241.384 78.0252 241.916 79.3092 241.916 80.648V85.68C241.916 130.4 205.676 201.492 160.968 201.492Z" stroke="#45413C" stroke-width="4" stroke-linecap="round" stroke-linejoin="round"/>
<path d="M194.492 270.272C194.492 270.272 209.732 221.78 160.968 193.36C112.204 164.94 80.02 126.3 80.02 85.68C80.02 159.472 95.38 183.452 134.08 203.64C172.78 223.828 179.352 247.728 194.492 270.272Z" fill="#FFE500"/>
<path d="M160.968 168.58C166.015 168.58 171.013 167.586 175.675 165.655C180.338 163.723 184.575 160.892 188.144 157.324C191.712 153.755 194.543 149.518 196.475 144.855C198.406 140.193 199.4 135.195 199.4 130.148C199.4 125.101 198.406 120.103 196.475 115.441C194.543 110.778 191.712 106.541 188.144 102.972C184.575 99.4037 180.338 96.5729 175.675 94.6415C171.013 92.7101 166.015 91.716 160.968 91.716C150.775 91.716 141 95.7651 133.793 102.972C126.585 110.18 122.536 119.955 122.536 130.148C122.536 140.341 126.585 150.116 133.793 157.324C141 164.531 150.775 168.58 160.968 168.58Z" fill="#FFF48C" stroke="#B58B00" stroke-width="4" stroke-miterlimit="10"/>
<path d="M194.492 270.272C194.492 270.272 209.732 221.78 160.968 193.36C112.204 164.94 80.0198 126.3 80.0198 85.68C79.8666 100.311 80.7286 114.936 82.5998 129.448C94.2918 158.18 121.16 184.648 157.076 205.6C188.82 224.096 193.436 251.092 192.796 267.692L194.492 270.272Z" fill="#FFF48C"/>
<path d="M194.492 270.272C194.492 270.272 209.732 221.78 160.968 193.36C112.204 164.94 80.02 126.3 80.02 85.68C80.02 159.472 95.38 183.452 134.08 203.64C172.78 223.828 179.352 247.728 194.492 270.272Z" stroke="#45413C" stroke-width="4" stroke-linecap="round" stroke-linejoin="round"/>
<path d="M127.48 270.272C127.48 270.272 112.244 221.78 161 193.36C209.756 164.94 241.952 126.3 241.952 85.68C241.952 159.472 226.592 183.452 187.892 203.64C149.192 223.828 142.62 247.728 127.48 270.272Z" fill="#FFE500"/>
<path d="M163.26 207.2C201.712 184.8 229.776 156 239.96 124.932C241.393 111.898 242.061 98.7918 241.96 85.68C241.96 126.3 209.772 164.94 161.012 193.36C112.252 221.78 127.48 270.272 127.48 270.272L127.576 270.12C126.756 253.6 131 226 163.26 207.2Z" fill="#FFF48C"/>
<path d="M127.48 270.272C127.48 270.272 112.244 221.78 161 193.36C209.756 164.94 241.952 126.3 241.952 85.68C241.952 159.472 226.592 183.452 187.892 203.64C149.192 223.828 142.62 247.728 127.48 270.272Z" stroke="#45413C" stroke-width="4" stroke-linecap="round" stroke-linejoin="round"/>
<path d="M211.584 28.744C209.126 32.621 205.752 35.8334 201.759 38.0978C197.766 40.3622 193.277 41.6089 188.688 41.728L180.576 27.416C185.164 27.2981 189.653 26.0523 193.645 23.7885C197.638 21.5247 201.011 18.3127 203.468 14.436L211.584 28.744Z" fill="#00A3FF" stroke="#45413C" stroke-width="4" stroke-linecap="round" stroke-linejoin="round"/>
<path d="M124.704 7.108C126.352 11.3926 126.92 16.017 126.358 20.573C125.795 25.129 124.12 29.4766 121.48 33.232L105.156 31.232C107.796 27.4773 109.471 23.1304 110.034 18.5751C110.596 14.0197 110.028 9.39594 108.38 5.112L124.704 7.108Z" fill="#FFCFE6" stroke="#45413C" stroke-width="4" stroke-linecap="round" stroke-linejoin="round"/>
<path d="M55.5321 94.696C52.5693 91.1902 50.5148 87.009 49.55 82.5214C48.5853 78.0338 48.7399 73.3777 50.0001 68.964L66.0841 65.508C64.8237 69.9214 64.6686 74.5772 65.6327 79.0648C66.5967 83.5523 68.6503 87.7336 71.6121 91.24L55.5321 94.696Z" fill="#8C91FF" stroke="#45413C" stroke-width="4" stroke-linecap="round" stroke-linejoin="round"/>
<path d="M294.068 289.464C291.105 285.959 289.05 281.777 288.086 277.289C287.122 272.801 287.278 268.145 288.54 263.732L304.62 260.276C303.363 264.689 303.21 269.342 304.174 273.828C305.138 278.313 307.19 282.493 310.148 286L294.068 289.464Z" fill="#CC8CFF" stroke="#45413C" stroke-width="4" stroke-linecap="round" stroke-linejoin="round"/>
<path d="M109.288 270.356C113.446 272.299 117.062 275.236 119.817 278.908C122.572 282.579 124.381 286.872 125.084 291.408L111.924 301.28C111.221 296.744 109.413 292.452 106.659 288.78C103.905 285.109 100.29 282.172 96.1318 280.228L109.288 270.356Z" fill="#FFFACF" stroke="#45413C" stroke-width="4" stroke-linecap="round" stroke-linejoin="round"/>
<path d="M249.548 149.276C245.39 151.221 241.775 154.158 239.021 157.831C236.267 161.503 234.458 165.796 233.756 170.332L246.912 180.204C247.615 175.668 249.424 171.374 252.178 167.702C254.933 164.03 258.549 161.092 262.708 159.148L249.548 149.276Z" fill="#FFCFE3" stroke="#45413C" stroke-width="4" stroke-linecap="round" stroke-linejoin="round"/>
<path d="M235.16 220.96C239.363 222.805 243.047 225.656 245.887 229.262C248.727 232.868 250.636 237.118 251.444 241.636L238.52 251.816C237.713 247.297 235.805 243.047 232.966 239.441C230.126 235.834 226.443 232.982 222.24 231.136L235.16 220.96Z" fill="#00FFC2" stroke="#45413C" stroke-width="4" stroke-linecap="round" stroke-linejoin="round"/>
<path d="M5.95605 254.188C6.49965 258.748 8.15799 263.104 10.7846 266.872C13.4112 270.639 16.9251 273.701 21.0161 275.788L34.5081 266.376C30.4171 264.289 26.9032 261.227 24.2766 257.46C21.65 253.692 19.9916 249.336 19.4481 244.776L5.95605 254.188Z" fill="#FF5C00" stroke="#45413C" stroke-width="4" stroke-linecap="round" stroke-linejoin="round"/>
<path d="M30.4002 146.124C26.5692 148.652 22.1747 150.198 17.6047 150.626C13.0347 151.054 8.42965 150.35 4.19616 148.576L2.66016 132.2C6.89398 133.973 11.4992 134.676 16.0692 134.248C20.6392 133.82 25.0335 132.273 28.8642 129.744L30.4002 146.124Z" fill="#8CFF98" stroke="#45413C" stroke-width="4" stroke-linecap="round" stroke-linejoin="round"/>
<path d="M332.432 192.884C328.601 195.412 324.206 196.958 319.636 197.386C315.066 197.814 310.461 197.11 306.228 195.336L304.696 178.96C308.93 180.733 313.535 181.436 318.105 181.008C322.675 180.58 327.069 179.033 330.9 176.504L332.432 192.884Z" fill="#8CF8FF" stroke="#45413C" stroke-width="4" stroke-linecap="round" stroke-linejoin="round"/>
<path d="M243.572 129.424C239.043 130.167 234.401 129.784 230.055 128.308C225.709 126.833 221.793 124.311 218.652 120.964L223.936 105.388C227.079 108.733 230.995 111.254 235.342 112.73C239.688 114.205 244.33 114.589 248.86 113.848L243.572 129.424Z" fill="#DBFFCF" stroke="#45413C" stroke-width="4" stroke-linecap="round" stroke-linejoin="round"/>
<path d="M45.4878 210.084C46.4727 205.601 48.5445 201.429 51.5208 197.936C54.4971 194.442 58.2866 191.733 62.5558 190.048L75.0798 200.716C70.8089 202.398 67.0178 205.106 64.0412 208.6C61.0645 212.095 58.9938 216.268 58.0118 220.752L45.4878 210.084Z" fill="#D38CFF" stroke="#45413C" stroke-width="4" stroke-linecap="round" stroke-linejoin="round"/>
<path d="M163.952 135.329C163.952 137.037 162.485 138.104 161.186 138.104C159.887 138.104 158.329 137.573 158.329 135.329V134.238H156.618V135.329C156.618 137.815 158.668 139.836 161.186 139.836C163.705 139.836 165.755 137.815 165.755 135.329V134.238H163.952V135.329Z" fill="#B58B00" stroke="#B58B00"/>
<path d="M149.58 130.059C149.58 128.428 150.983 127.102 152.707 127.102C154.429 127.102 155.832 128.429 155.832 130.059H157.802C157.802 127.4 155.517 125.238 152.707 125.238C149.896 125.238 147.61 127.4 147.61 130.059H149.58Z" fill="#B58B00" stroke="#B58B00"/>
<path d="M165.81 130.059C165.81 128.428 167.213 127.102 168.936 127.102C170.659 127.102 172.062 128.429 172.062 130.059H174.032C174.032 127.4 171.746 125.238 168.936 125.238C166.125 125.238 163.84 127.4 163.84 130.059H165.81Z" fill="#B58B00" stroke="#B58B00"/>
<path fill-rule="evenodd" clip-rule="evenodd" d="M177.209 123.735V117.326C177.209 115.167 176.949 113.669 176.428 112.831C175.907 111.994 174.823 111.349 173.174 110.895C172.677 110.754 172.428 110.527 172.428 110.214C172.428 109.792 172.988 109.58 174.108 109.58H175.81C177.661 109.58 179.064 110.159 180.02 111.317C180.976 112.475 181.454 114.165 181.454 116.388V123.148C181.454 124.713 181.622 125.917 181.956 126.763C182.29 127.608 182.908 128.398 183.81 129.133C184.074 129.352 184.207 129.532 184.207 129.673C184.207 129.814 184.074 129.994 183.81 130.213C182.893 130.964 182.271 131.758 181.944 132.596C181.618 133.433 181.454 134.634 181.454 136.199V142.935C181.454 145.173 180.972 146.871 180.008 148.029C179.044 149.187 177.645 149.766 175.81 149.766H174.108C173.377 149.766 172.914 149.731 172.72 149.66C172.525 149.59 172.428 149.414 172.428 149.132C172.428 148.741 172.685 148.483 173.198 148.358L174.131 148.146C176.183 147.677 177.209 145.635 177.209 142.02V135.612C177.209 133.186 177.793 131.473 178.959 130.471L179.402 130.096C179.62 129.908 179.728 129.767 179.728 129.673C179.728 129.564 179.62 129.423 179.402 129.251L178.959 128.875C177.793 127.874 177.209 126.16 177.209 123.735Z" fill="#B58B00" stroke="#B58B00"/>
<path fill-rule="evenodd" clip-rule="evenodd" d="M144.872 123.679V117.271C144.872 115.112 145.132 113.613 145.653 112.776C146.174 111.939 147.259 111.293 148.907 110.839C149.405 110.699 149.653 110.472 149.653 110.159C149.653 109.736 149.094 109.525 147.974 109.525H146.271C144.421 109.525 143.018 110.104 142.062 111.262C141.105 112.42 140.627 114.11 140.627 116.332V123.092C140.627 124.657 140.46 125.862 140.126 126.707C139.791 127.552 139.173 128.342 138.272 129.078C138.007 129.297 137.875 129.477 137.875 129.618C137.875 129.759 138.007 129.939 138.272 130.158C139.189 130.909 139.811 131.703 140.137 132.54C140.464 133.377 140.627 134.578 140.627 136.143V142.88C140.627 145.118 141.109 146.816 142.073 147.974C143.037 149.132 144.437 149.711 146.271 149.711H147.974C148.705 149.711 149.167 149.675 149.362 149.605C149.556 149.535 149.653 149.358 149.653 149.077C149.653 148.686 149.397 148.428 148.884 148.302L147.951 148.091C145.898 147.622 144.872 145.579 144.872 141.965V135.556C144.872 133.131 144.289 131.417 143.123 130.416L142.68 130.04C142.462 129.853 142.353 129.712 142.353 129.618C142.353 129.508 142.462 129.367 142.68 129.195L143.123 128.82C144.289 127.818 144.872 126.105 144.872 123.679Z" fill="#B58B00" stroke="#B58B00"/>
</g>
<defs>
<clipPath id="clip0_9545_53994">
<rect width="334" height="330" fill="white" transform="translate(0.660156 0.112)"/>
</clipPath>
</defs>
</svg>

<svg xmlns="http://www.w3.org/2000/svg" width="335" height="331" fill="none"><g clip-path="url(#a)"><path fill="#FFE500" stroke="#45413C" stroke-linecap="round" stroke-linejoin="round" stroke-width="4" d="M161 213.804a6.601 6.601 0 0 1-3.112-12.42l119.564-63.92a32.87 32.87 0 0 0 13.62-37.6A32.864 32.864 0 0 0 234.388 88.9l-5.788 7.012a6.603 6.603 0 0 1-10.184-8.4l5.784-7.028a46.055 46.055 0 0 1 78.796 45.124 46.067 46.067 0 0 1-18.7 23.144c-.132.084-.272.16-.4.236l-119.792 64.036a6.569 6.569 0 0 1-3.104.78Z"/><path fill="#FFE500" stroke="#45413C" stroke-linecap="round" stroke-linejoin="round" stroke-width="4" d="M160.94 213.804a6.599 6.599 0 0 0 3.116-12.42l-119.564-63.92a32.875 32.875 0 0 1-13.624-37.6A32.86 32.86 0 0 1 87.552 88.9l5.8 7.028a6.6 6.6 0 0 0 10.18-8.4l-5.796-7.032a46.056 46.056 0 1 0-60.096 68.256l.4.236 119.792 64.036c.956.512 2.024.78 3.108.78Z"/><path fill="#FFE500" d="M160.968 201.492c-44.704 0-80.948-71.108-80.948-115.812v-5.048a5.048 5.048 0 0 1 5.048-5.032h151.8a5.05 5.05 0 0 1 5.048 5.048v5.032c0 44.72-36.24 115.812-80.948 115.812Z"/><path fill="#FFF48C" d="M80.444 78.608a5.053 5.053 0 0 1 4.624-3.024h151.8a5.05 5.05 0 0 1 4.524 2.8 231.334 231.334 0 0 1-80.704 13.328 232.795 232.795 0 0 1-80.232-13.104"/><path fill="#45413C" d="M160.692 329.584c30.12 0 54.536-4.12 54.536-9.208 0-5.084-24.416-9.208-54.536-9.208s-54.536 4.12-54.536 9.208c0 5.084 24.416 9.208 54.536 9.208Z" opacity=".15"/><path fill="#EBCB00" d="M160.968 212.528c-13.428 2.224-33.948 43.376-33.948 57.744h67.896s-20.52-59.968-33.948-57.744Z"/><path fill="#FFE500" d="M160.968 240.112c-12.276 0-17.252 22.4-23.176 30.16h45.796c-6.764-9.8-10.344-30.16-22.62-30.16Z"/><path fill="#915E3A" stroke="#45413C" stroke-linecap="round" stroke-linejoin="round" stroke-width="4" d="M210.228 317.956h-98.52a3.995 3.995 0 0 1-2.828-1.172 3.995 3.995 0 0 1-1.172-2.828v-15.72h106.52v15.72a3.995 3.995 0 0 1-1.172 2.828 3.995 3.995 0 0 1-2.828 1.172Z"/><path fill="#BF8256" stroke="#45413C" stroke-linecap="round" stroke-linejoin="round" stroke-width="4" d="M214.228 298.236h-106.52l6.892-19.688a12.363 12.363 0 0 1 11.664-8.276h69.412a12.358 12.358 0 0 1 11.664 8.276l6.888 19.688Z"/><path stroke="#45413C" stroke-linecap="round" stroke-linejoin="round" stroke-width="4" d="M160.968 201.492c-44.704 0-80.948-71.108-80.948-115.812v-5.048a5.048 5.048 0 0 1 5.048-5.032h151.8a5.05 5.05 0 0 1 5.048 5.048v5.032c0 44.72-36.24 115.812-80.948 115.812Z"/><path fill="#FFE500" d="M194.492 270.272s15.24-48.492-33.524-76.912C112.204 164.94 80.02 126.3 80.02 85.68c0 73.792 15.36 97.772 54.06 117.96 38.7 20.188 45.272 44.088 60.412 66.632Z"/><path fill="#FFF48C" stroke="#B58B00" stroke-miterlimit="10" stroke-width="4" d="M160.968 168.58a38.434 38.434 0 0 0 35.507-23.725 38.434 38.434 0 0 0-35.507-53.139 38.431 38.431 0 1 0 0 76.864Z"/><path fill="#FFF48C" d="M194.492 270.272s15.24-48.492-33.524-76.912C112.204 164.94 80.02 126.3 80.02 85.68a316.356 316.356 0 0 0 2.58 43.768c11.692 28.732 38.56 55.2 74.476 76.152 31.744 18.496 36.36 45.492 35.72 62.092l1.696 2.58Z"/><path stroke="#45413C" stroke-linecap="round" stroke-linejoin="round" stroke-width="4" d="M194.492 270.272s15.24-48.492-33.524-76.912C112.204 164.94 80.02 126.3 80.02 85.68c0 73.792 15.36 97.772 54.06 117.96 38.7 20.188 45.272 44.088 60.412 66.632Z"/><path fill="#FFE500" d="M127.48 270.272S112.244 221.78 161 193.36c48.756-28.42 80.952-67.06 80.952-107.68 0 73.792-15.36 97.772-54.06 117.96-38.7 20.188-45.272 44.088-60.412 66.632Z"/><path fill="#FFF48C" d="M163.26 207.2c38.452-22.4 66.516-51.2 76.7-82.268a335.52 335.52 0 0 0 2-39.252c0 40.62-32.188 79.26-80.948 107.68-48.76 28.42-33.532 76.912-33.532 76.912l.096-.152C126.756 253.6 131 226 163.26 207.2Z"/><path stroke="#45413C" stroke-linecap="round" stroke-linejoin="round" stroke-width="4" d="M127.48 270.272S112.244 221.78 161 193.36c48.756-28.42 80.952-67.06 80.952-107.68 0 73.792-15.36 97.772-54.06 117.96-38.7 20.188-45.272 44.088-60.412 66.632Z"/><path fill="#00A3FF" stroke="#45413C" stroke-linecap="round" stroke-linejoin="round" stroke-width="4" d="M211.584 28.744a27.97 27.97 0 0 1-22.896 12.984l-8.112-14.312a27.95 27.95 0 0 0 22.892-12.98l8.116 14.308Z"/><path fill="#FFCFE6" stroke="#45413C" stroke-linecap="round" stroke-linejoin="round" stroke-width="4" d="M124.704 7.108a27.97 27.97 0 0 1-3.224 26.124l-16.324-2a27.962 27.962 0 0 0 3.224-26.12l16.324 1.996Z"/><path fill="#8C91FF" stroke="#45413C" stroke-linecap="round" stroke-linejoin="round" stroke-width="4" d="M55.532 94.696A27.97 27.97 0 0 1 50 68.964l16.084-3.456a27.972 27.972 0 0 0 5.528 25.732l-16.08 3.456Z"/><path fill="#CC8CFF" stroke="#45413C" stroke-linecap="round" stroke-linejoin="round" stroke-width="4" d="M294.068 289.464a27.953 27.953 0 0 1-5.528-25.732l16.08-3.456A27.995 27.995 0 0 0 310.148 286l-16.08 3.464Z"/><path fill="#FFFACF" stroke="#45413C" stroke-linecap="round" stroke-linejoin="round" stroke-width="4" d="M109.288 270.356a27.962 27.962 0 0 1 15.796 21.052l-13.16 9.872a27.971 27.971 0 0 0-15.792-21.052l13.156-9.872Z"/><path fill="#FFCFE3" stroke="#45413C" stroke-linecap="round" stroke-linejoin="round" stroke-width="4" d="M249.548 149.276a27.966 27.966 0 0 0-15.792 21.056l13.156 9.872a27.972 27.972 0 0 1 15.796-21.056l-13.16-9.872Z"/><path fill="#00FFC2" stroke="#45413C" stroke-linecap="round" stroke-linejoin="round" stroke-width="4" d="M235.16 220.96a27.959 27.959 0 0 1 16.284 20.676l-12.924 10.18a27.948 27.948 0 0 0-16.28-20.68l12.92-10.176Z"/><path fill="#FF5C00" stroke="#45413C" stroke-linecap="round" stroke-linejoin="round" stroke-width="4" d="M5.956 254.188a27.97 27.97 0 0 0 15.06 21.6l13.492-9.412a27.965 27.965 0 0 1-15.06-21.6l-13.492 9.412Z"/><path fill="#8CFF98" stroke="#45413C" stroke-linecap="round" stroke-linejoin="round" stroke-width="4" d="M30.4 146.124a27.967 27.967 0 0 1-26.204 2.452L2.66 132.2a27.964 27.964 0 0 0 26.204-2.456l1.536 16.38Z"/><path fill="#8CF8FF" stroke="#45413C" stroke-linecap="round" stroke-linejoin="round" stroke-width="4" d="M332.432 192.884a27.969 27.969 0 0 1-26.204 2.452l-1.532-16.376a27.964 27.964 0 0 0 26.204-2.456l1.532 16.38Z"/><path fill="#DBFFCF" stroke="#45413C" stroke-linecap="round" stroke-linejoin="round" stroke-width="4" d="M243.572 129.424a27.961 27.961 0 0 1-24.92-8.46l5.284-15.576a28.005 28.005 0 0 0 24.924 8.46l-5.288 15.576Z"/><path fill="#D38CFF" stroke="#45413C" stroke-linecap="round" stroke-linejoin="round" stroke-width="4" d="M45.488 210.084a28 28 0 0 1 17.068-20.036l12.524 10.668a27.962 27.962 0 0 0-17.068 20.036l-12.524-10.668Z"/><path fill="#B58B00" stroke="#B58B00" d="M163.952 135.329c0 1.708-1.467 2.775-2.766 2.775s-2.857-.531-2.857-2.775v-1.091h-1.711v1.091c0 2.486 2.05 4.507 4.568 4.507 2.519 0 4.569-2.021 4.569-4.507v-1.091h-1.803v1.091ZM149.58 130.059c0-1.631 1.403-2.957 3.127-2.957 1.722 0 3.125 1.327 3.125 2.957h1.97c0-2.659-2.285-4.821-5.095-4.821-2.811 0-5.097 2.162-5.097 4.821h1.97ZM165.81 130.059c0-1.631 1.403-2.957 3.126-2.957 1.723 0 3.126 1.327 3.126 2.957h1.97c0-2.659-2.286-4.821-5.096-4.821-2.811 0-5.096 2.162-5.096 4.821h1.97Z"/><path fill="#B58B00" fill-rule="evenodd" stroke="#B58B00" d="M177.209 123.735v-6.409c0-2.159-.26-3.657-.781-4.495-.521-.837-1.605-1.482-3.254-1.936-.497-.141-.746-.368-.746-.681 0-.422.56-.634 1.68-.634h1.702c1.851 0 3.254.579 4.21 1.737.956 1.158 1.434 2.848 1.434 5.071v6.76c0 1.565.168 2.769.502 3.615.334.845.952 1.635 1.854 2.37.264.219.397.399.397.54 0 .141-.133.321-.397.54-.917.751-1.539 1.545-1.866 2.383-.326.837-.49 2.038-.49 3.603v6.736c0 2.238-.482 3.936-1.446 5.094-.964 1.158-2.363 1.737-4.198 1.737h-1.702c-.731 0-1.194-.035-1.388-.106-.195-.07-.292-.246-.292-.528 0-.391.257-.649.77-.774l.933-.212c2.052-.469 3.078-2.511 3.078-6.126v-6.408c0-2.426.584-4.139 1.75-5.141l.443-.375c.218-.188.326-.329.326-.423 0-.109-.108-.25-.326-.422l-.443-.376c-1.166-1.001-1.75-2.715-1.75-5.14ZM144.872 123.679v-6.408c0-2.159.26-3.658.781-4.495.521-.837 1.606-1.483 3.254-1.937.498-.14.746-.367.746-.68 0-.423-.559-.634-1.679-.634h-1.703c-1.85 0-3.253.579-4.209 1.737-.957 1.158-1.435 2.848-1.435 5.07v6.76c0 1.565-.167 2.77-.501 3.615-.335.845-.953 1.635-1.854 2.371-.265.219-.397.399-.397.54 0 .141.132.321.397.54.917.751 1.539 1.545 1.865 2.382.327.837.49 2.038.49 3.603v6.737c0 2.238.482 3.936 1.446 5.094.964 1.158 2.364 1.737 4.198 1.737h1.703c.731 0 1.193-.036 1.388-.106.194-.07.291-.247.291-.528 0-.391-.256-.649-.769-.775l-.933-.211c-2.053-.469-3.079-2.512-3.079-6.126v-6.409c0-2.425-.583-4.139-1.749-5.14l-.443-.376c-.218-.187-.327-.328-.327-.422 0-.11.109-.251.327-.423l.443-.375c1.166-1.002 1.749-2.715 1.749-5.141Z" clip-rule="evenodd"/></g><defs><clipPath id="a"><path fill="#fff" d="M.66.112h334v330H.66z"/></clipPath></defs></svg>
